X: 1
T: The Golden Eagle
R: hornpipe
M: 4/4
L: 1/8
K: Gmaj
(3cBA|GB,DG BDGB|dGBd gbag|fed^c =cAFD|GBAG (3FED (3cBA|
GB,DG BdGB|dGBd gbag|fed^c =cAFD|(3GGG GF G2:|
|:(3bbb|bB^df bagf|e^def gfg^g|aA^ce agfe|e=dd^c d2ab|
c'afd ^cdef|gfga bgag|fed^c =cAFD|(3GGG GF G2:||


Tune 974	Setting 14172

